!!!OTL: 831b. Ehestandslob.
!!!ODT: 1880
!!!ARE: Europa, Mitteleuropa, Deutschland, Hessen, Unter- Lahn- u. Dillkreis
!!!SCT: E0831A
!!!TXL: @@DE
!!!YEM: Copyright 1995, estate of Helmut Schaffrath.
**kern	**text
*ICvox	*
*M3/4	*
*k[f#]	*
*G:	*
=1	=1
!LO:TX:a:t=Rasch.	!
!LO:TX:a:t=Aus dem Unterlahn- u. Dillkreiſe 1880.	!
{4d	Sieh
8gL	an,
8aJ	.
8bL	mein
8ccJ	.
=2	=2
4dd	lie-
8ddL	-bes
8ccJ	.
4b}	Kind,
=3	=3
{4dd	was
4ee	muß
4dd	ich
=4	=4
4cc	lei-
4b	-den.
4r}	.
=5	=5
{4d	Was
8gL	mich
8aJ	.
8bL	von
8ccJ	.
=6	=6
4dd	Her-
8ddL	-ʒen
8ccJ	.
4b}	freut,
=7	=7
{4dd	das
4ee	muß
4dd	ich
=8	=8
4cc	mei-
4b	-den.
4r}	.
=9	=9
{4dd	Al-
4dd	-le
4dd	Ge-
=10	=10
4.ee	-le-
8cc	-gen-
4a}	-heit
=11	=11
{8aL	iſt
8bJ	.
4cc	mir
4cc	ge-
=12	=12
8bL	-nom-
8ddJ	.
4dd	-men,
4r}	.
=13	=13
{4dd	Hoff-
4dd	-nung
4dd	und
=14	=14
(4dd	Fröh-
8ee)	.
8ff#	-lich-
4gg}	-keit
=15	=15
{4ee	wird
4dd	wiedrum
4b	.
=16	=16
4a	kommen.
4g	.
4r}	.
==	==
!!!AGN: Hochzeits -, Ehestands - Lied
!!!ONB: ESAC (Essen Associative Code) Database: ERK2
!!!AMT: simple triple
!!!AIN: vox
!!!EED: Helmut Schaffrath
!!!EEV: 1.0
!!!GTL: Hochzeits- und Ehrstandslieder, nebst Nonnenklagen
!!!URL-scan: https://rosdok.uni-rostock.de/mcrviewer/recordIdentifier/rosdok_ppn745177662/iview2/phys_0638.iview2?x=165.4478077810943&y=2270.4452311070636&scale=0.7029437510502773&rotation=0&layout=singlePageLayout
!!!ENC: Anna Maria Matuszewska
!!!EEV: 2024/12/18
*-	*-
